build/images/content/icons/return-box.svg

<svg width="50" height="50" viewBox="0 0 50 50" fill="none" xmlns="http://www.w3.org/2000/svg">
<path d="M33.6914 50H11.7188C5.25703 50 0 44.743 0 38.2812V11.7188C0 5.25703 5.25703 0 11.7188 0H38.2812C44.743 0 50 5.25703 50 11.7188V29.0039C49.8969 31.5953 46.196 31.5934 46.0938 29.0039V11.7188C46.0938 7.41094 42.5891 3.90625 38.2812 3.90625H11.7188C7.41094 3.90625 3.90625 7.41094 3.90625 11.7188V38.2812C3.90625 42.5891 7.41094 46.0938 11.7188 46.0938H33.6914C36.2828 46.1969 36.2809 49.8978 33.6914 50ZM31.9336 10.7422C31.9336 9.66348 31.0592 8.78906 29.9805 8.78906H20.0195C17.4281 8.89219 17.4301 12.5931 20.0195 12.6953H29.9805C31.0592 12.6953 31.9336 11.8209 31.9336 10.7422ZM31.3477 42.8711C30.849 42.8711 30.3503 42.6814 29.9691 42.3016L26.7183 39.0627C25.6101 37.958 25.0001 36.4892 25 34.9266C25 33.364 25.6101 31.8951 26.7178 30.7907C26.7229 30.7855 29.9841 27.6055 29.9841 27.6055C30.7564 26.8522 31.993 26.8681 32.746 27.6402C33.499 28.4125 33.4835 29.649 32.7112 30.4021L29.4696 33.5631C28.7211 34.2857 28.7238 35.5764 29.4757 36.2957L32.7262 39.5342C33.9614 40.7582 33.0636 42.8814 31.3477 42.8711ZM47.5287 47.4901C52.8413 42.1565 49.0062 32.8926 41.4551 32.9102H34.4727C31.8813 33.0133 31.8832 36.7142 34.4727 36.8164H41.4551C44.0128 36.8164 46.0938 38.8974 46.0938 41.4551C46.0938 44.0128 44.0348 46.0938 41.5039 46.0938C38.9143 46.1957 38.9129 49.8974 41.5039 50C43.7871 50 45.9268 49.1086 47.5287 47.4901Z" fill="#63A60E"/>
</svg>

<svg width="50" height="50" fill="none" xmlns="http://www.w3.org/2000/svg"><path d="M33.691 50H11.72C5.257 50 0 44.743 0 38.281V11.72C0 5.257 5.257 0 11.719 0H38.28C44.743 0 50 5.257 50 11.719v17.285c-.103 2.591-3.804 2.59-3.906 0V11.719c0-4.308-3.505-7.813-7.813-7.813H11.72c-4.308 0-7.813 3.505-7.813 7.813V38.28c0 4.308 3.505 7.813 7.813 7.813h21.97c2.592.103 2.59 3.804 0 3.906zm-1.757-39.258A1.953 1.953 0 0029.98 8.79h-9.96c-2.592.103-2.59 3.804 0 3.906h9.96a1.953 1.953 0 001.954-1.953zm-.586 32.13c-.499 0-.998-.19-1.379-.57l-3.25-3.24A5.802 5.802 0 0125 34.928a5.8 5.8 0 011.718-4.136l3.266-3.186a1.953 1.953 0 112.727 2.797l-3.241 3.161c-.749.723-.746 2.013.006 2.733l3.25 3.238c1.235 1.224.338 3.347-1.378 3.337zm16.18 4.618c5.313-5.334 1.478-14.597-6.073-14.58h-6.982c-2.592.103-2.59 3.804 0 3.906h6.982a4.644 4.644 0 014.639 4.64c0 2.557-2.06 4.638-4.59 4.638-2.59.102-2.591 3.803 0 3.906a8.415 8.415 0 006.025-2.51z" fill="#63A60E"/></svg>
